X:2431
T:Untitled
C:Traditional
O:Isle of Man
Z:Kiaull Vannin 431 
M:3/4 
L:1/8 
Q:140 
K:C 
G|cd e3 c|fe e2 d >G|Bc d3f|ed ed c2-|c4 z G| 
cd e3 d/e/|gf e2 d> G|Bc d3 g/f/|ed ed c2-|c4 z e/f/| 
gf g3 f/e/|fe f3 e/d/|ed e2 c2|d4 ef|gf g3 f/e/|fe f3 e/d/|e2 dc BA|G4 z|
